X: 11007
T: Drunken Sailor's, The
R: hornpipe
M: 4/4
K: Adorian
|:A|EAAG ABcd|edcB AGEF|G3F GABc|dBGB edcB|
AE E2 ABcd|edcB AGEF|G2 ga gedB|cABG A3:|
|:B|c3B cdef|gdBc dBGc|(3BAG dG eGdG|(3BAG dG edcB|
c3B cdef|gdBc dBGB|A2 ea gedB|cABG A3:|
|:EAAG A2 GA|BAGF E3D|EDAD BDAD|EDAD BAGF|
EAAG A2 GA|BAGF E3D|(3EFG DF GEDB|cABG A4:|
|:Acec Acec|GBdB GBdB|Acec Acec|e2 e=f edcB|
Acec Acec|d2 BG DGBd|(3efg df gedB|cABG A4:|
(3ABc AE (3ABc AE|(3GAB GD (3GAB GD|(3ABc AE (3ABc A/E/E/F/|gedB eBdB|
cBcA BABG|cBce dGBd|(3efg fa gedB|cABG A4:|
|:EAcA EAcA|DGBG DGBG|EAcA EAcd|edcB cBAG|
EAcA EAcA|d2 BG DGBG|(3efg df gedB|cABG A4|
Ac c2 Ac c2|GB B2 GB B2|Ac c2 Accd|e2 e=f edcB|
Acec Acec|d2 BG DG B2|(3efg df gedB|cABG A4:|

